abel/img/logo-small.svg

<svg width="135" height="41" viewBox="0 0 135 41" fill="none" xmlns="http://www.w3.org/2000/svg">
<g clip-path="url(#clip0)">
<path d="M34.333 0.71875L0 40.8633L13.3831 40.9998L18.3109 35.3081L29.2301 35.4413L27.1163 40.8633L38.914 40.9998L50.8867 0.725407L34.333 0.71875ZM30.9938 27.4363L24.8307 27.17L35.0365 14.4187L30.9938 27.4363Z" fill="white"/>
<path d="M86.8053 0.71875L75.1826 40.9998L98.7748 40.7335L101.595 31.3706L91.5548 31.2341L92.7933 26.7606H101.414L103.881 16.1828H95.7824L96.6643 11.2999L107.577 11.1668L110.748 0.71875H86.8053Z" fill="white"/>
<path d="M114.621 0.71875L102.652 40.7335L124.484 40.9998L133.652 30.2855H120.431L128.886 0.71875H114.621Z" fill="white"/>
<path d="M71.4865 0.718773C68.3158 0.588963 55.1144 0.85524 55.1144 0.85524L43.3101 40.8634H63.2129C63.2129 40.8634 70.0729 40.7369 73.4187 34.0833C76.7645 27.4297 76.2393 24.3209 68.3158 20.2502C68.3158 20.2502 78.8849 19.1618 79.9352 10.8939C80.9855 2.62598 74.6572 0.858568 71.4865 0.718773ZM63.7414 28.1187C63.388 31.78 58.8103 31.78 58.8103 31.78L60.5707 24.5938C60.5707 24.5938 64.0915 24.4574 63.7414 28.1187ZM67.2622 13.3336C66.2086 17.4044 62.8463 16.722 62.8463 16.722L64.61 9.94527C64.61 9.94527 68.3158 9.26959 67.2622 13.3336Z" fill="white"/>
<path d="M35.6904 0.0400391L1.35742 40.1813L14.7372 40.3244L19.665 34.6261L30.5842 34.7626L28.4671 40.1813L40.2681 40.3244L52.2409 0.050024L35.6904 0.0400391ZM32.3446 26.7576L26.1848 26.488L36.3939 13.74L32.3446 26.7576Z" fill="#ED1C24"/>
<path d="M88.1592 0.0400391L76.5332 40.3211L100.129 40.0515L102.949 30.6852L92.9086 30.5554L94.1406 26.0786H102.774L105.238 15.5007H97.133L98.0181 10.6179L108.937 10.4848L112.098 0.0400391H88.1592Z" fill="#ED1C24"/>
<path d="M115.979 0.0400391L104.006 40.0515L125.838 40.3211L135 29.6068H121.786L130.237 0.0400391H115.979Z" fill="#ED1C24"/>
<path d="M72.8406 0.0401639C69.6699 -0.0963031 56.4652 0.176631 56.4652 0.176631L44.6807 40.1814H64.5637C64.5637 40.1814 71.4303 40.0516 74.7728 33.4013C78.1152 26.7511 77.5901 23.639 69.6699 19.5716C69.6699 19.5716 80.239 18.4798 81.2893 10.2119C82.3396 1.94404 76.0047 0.193273 72.8406 0.0401639ZM65.0889 27.4367C64.7388 31.098 60.161 31.098 60.161 31.098L61.9248 23.9086C61.9248 23.9086 65.4456 23.7721 65.0889 27.4367ZM68.613 12.655C67.5561 16.7224 64.2103 16.0434 64.2103 16.0434L65.9707 9.26666C65.9707 9.26666 69.6699 8.58765 68.613 12.655Z" fill="#ED1C24"/>
</g>
<defs>
<clipPath id="clip0">
<rect width="135" height="41" fill="white"/>
</clipPath>
</defs>
</svg>

<svg width="135" height="41" fill="none" xmlns="http://www.w3.org/2000/svg"><g clip-path="url(#clip0)"><path d="M34.333.719L0 40.863 13.383 41l4.928-5.692 10.92.133-2.115 5.422L38.914 41 50.887.725 34.333.72zm-3.34 26.717l-6.162-.266 10.205-12.751-4.042 13.017zM86.805.719l-11.622 40.28 23.592-.266 2.82-9.362-10.04-.137 1.238-4.473h8.621l2.467-10.578h-8.099l.882-4.883 10.913-.133L110.748.719H86.805zM114.621.719l-11.969 40.014 21.832.267 9.168-10.715h-13.221L128.886.72h-14.265zM71.487.719c-3.171-.13-16.373.136-16.373.136L43.31 40.863h19.903s6.86-.126 10.206-6.78c3.346-6.653 2.82-9.762-5.103-13.833 0 0 10.569-1.088 11.62-9.356C80.985 2.626 74.656.859 71.485.719zm-7.746 27.4c-.353 3.661-4.93 3.661-4.93 3.661l1.76-7.186s3.52-.137 3.17 3.525zm3.521-14.785c-1.053 4.07-4.416 3.388-4.416 3.388l1.764-6.777s3.706-.675 2.652 3.389z" fill="#fff"/><path d="M35.69.04L1.357 40.181l13.38.143 4.928-5.698 10.92.137-2.118 5.418 11.801.143L52.241.05 35.69.04zm-3.345 26.718l-6.16-.27L36.394 13.74l-4.05 13.018zM88.16.04L76.532 40.321l23.596-.27 2.82-9.366-10.04-.13 1.232-4.476h8.633l2.464-10.578h-8.105l.885-4.883 10.919-.133L112.098.04H88.159zM115.979.04l-11.973 40.011 21.832.27L135 29.607h-13.214L130.237.04h-14.258zM72.84.04c-3.17-.136-16.375.137-16.375.137L44.681 40.18h19.883s6.866-.13 10.209-6.78c3.342-6.65 2.817-9.762-5.103-13.83 0 0 10.569-1.091 11.62-9.36C82.34 1.945 76.004.194 72.84.042zM65.09 27.437c-.35 3.661-4.928 3.661-4.928 3.661l1.764-7.19s3.52-.136 3.164 3.529zm3.524-14.782c-1.057 4.067-4.403 3.388-4.403 3.388l1.76-6.776s3.7-.68 2.643 3.388z" fill="#ED1C24"/></g><defs><clipPath id="clip0"><path fill="#fff" d="M0 0h135v41H0z"/></clipPath></defs></svg>
